img/icons/ico_micro.svg

<?xml version="1.0" encoding="UTF-8" standalone="no"?>
<!-- Created with Inkscape (http://www.inkscape.org/) -->

<svg
   xmlns:dc="http://purl.org/dc/elements/1.1/"
   xmlns:cc="http://creativecommons.org/ns#"
   xmlns:rdf="http://www.w3.org/1999/02/22-rdf-syntax-ns#"
   xmlns:svg="http://www.w3.org/2000/svg"
   xmlns="http://www.w3.org/2000/svg"
   xmlns:sodipodi="http://sodipodi.sourceforge.net/DTD/sodipodi-0.dtd"
   xmlns:inkscape="http://www.inkscape.org/namespaces/inkscape"
   width="32px"
   height="32px"
   id="svg2985"
   version="1.1"
   inkscape:version="0.48.3.1 r9886"
   sodipodi:docname="for_micro.svg"
   inkscape:export-filename="/media/X/bitcoin.org/bitcoin.org_icon/img/for_micro.png"
   inkscape:export-xdpi="90"
   inkscape:export-ydpi="90">
  <defs
     id="defs2987" />
  <sodipodi:namedview
     id="base"
     pagecolor="#ffffff"
     bordercolor="#666666"
     borderopacity="1.0"
     inkscape:pageopacity="0.0"
     inkscape:pageshadow="2"
     inkscape:zoom="7.9180417"
     inkscape:cx="-9.4824638"
     inkscape:cy="11.368168"
     inkscape:current-layer="layer1"
     showgrid="true"
     inkscape:grid-bbox="true"
     inkscape:document-units="px"
     inkscape:window-width="1017"
     inkscape:window-height="668"
     inkscape:window-x="0"
     inkscape:window-y="24"
     inkscape:window-maximized="0" />
  <metadata
     id="metadata2990">
    <rdf:RDF>
      <cc:Work
         rdf:about="">
        <dc:format>image/svg+xml</dc:format>
        <dc:type
           rdf:resource="http://purl.org/dc/dcmitype/StillImage" />
        <dc:title></dc:title>
      </cc:Work>
    </rdf:RDF>
  </metadata>
  <g
     id="layer1"
     inkscape:label="Layer 1"
     inkscape:groupmode="layer">
    <path
       style="fill:#000000;fill-opacity:1;stroke:#000000;stroke-width:0.88981247px;stroke-linecap:butt;stroke-linejoin:round;stroke-opacity:1"
       d="M 1.9851912,8.8344555 15.698769,8.6732412 c 0,0 0.09327,0.2187005 0.114099,2.9097138 L 22.234913,7.256962 15.641222,2.6158997 15.71188,5.5867238 C 17.221491,5.6313979 1.9642012,5.7733534 1.9642012,5.7733534 z"
       id="path2992"
       inkscape:connector-curvature="0"
       sodipodi:nodetypes="cccccccc" />
    <path
       style="fill:#000000;fill-opacity:1;stroke:#000000;stroke-width:0.88981247px;stroke-linecap:butt;stroke-linejoin:round;stroke-opacity:1"
       d="m 6.545878,17.565752 17.572719,-0.161214 c 0,0 0.09327,0.2187 0.114099,2.909713 l 6.422044,-4.325992 -6.59369,-4.641062 0.07066,2.970823 c 1.509611,0.04467 -17.6068195,0.186629 -17.6068195,0.186629 z"
       id="path2992-2"
       inkscape:connector-curvature="0"
       sodipodi:nodetypes="cccccccc" />
    <path
       style="fill:#000000;fill-opacity:1;stroke:#000000;stroke-width:0.88981247px;stroke-linecap:butt;stroke-linejoin:round;stroke-opacity:1"
       d="M 21.500449,26.699054 7.7868717,26.537839 c 0,0 -0.09327,0.218701 -0.1140993,2.909714 L 1.2507275,25.12156 7.8444184,20.480498 7.7737608,23.451322 c -1.5096111,0.04467 13.7476782,0.18663 13.7476782,0.18663 z"
       id="path2992-3"
       inkscape:connector-curvature="0"
       sodipodi:nodetypes="cccccccc" />
  </g>
</svg>

<?xml version="1.0" encoding="UTF-8"?>
<svg xmlns="http://www.w3.org/2000/svg" width="32" height="32">
  <g stroke="#000" stroke-width=".89" stroke-linejoin="round">
    <path d="M1.985 8.834l13.714-.161s.093.219.114 2.91l6.422-4.326-6.594-4.641.071 2.971c1.51.045-13.748.187-13.748.187z"/>
    <path d="M6.546 17.566l17.573-.161s.093.219.114 2.91l6.422-4.326-6.594-4.641.071 2.971c1.51.045-17.607.187-17.607.187z"/>
    <path d="M21.5 26.699l-13.714-.161s-.093.219-.114 2.91l-6.422-4.326 6.594-4.641-.071 2.971c-1.51.045 13.748.187 13.748.187z"/>
  </g>
</svg>
